app/images/icons/heart.svg

<?xml version="1.0" encoding="UTF-8" standalone="no"?>
<svg width="61px" height="56px" viewBox="0 0 61 56" version="1.1" xmlns="http://www.w3.org/2000/svg" xmlns:xlink="http://www.w3.org/1999/xlink">
    <!-- Generator: Sketch 39.1 (31720) - http://www.bohemiancoding.com/sketch -->
    <title>heart</title>
    <desc>Created with Sketch.</desc>
    <defs></defs>
    <g id="Desktop" stroke="none" stroke-width="1" fill="none" fill-rule="evenodd">
        <g id="1-1-Frontend-Test-Project-Desktop" transform="translate(-981.000000, -1327.000000)" fill="#CECED2">
            <g id="ABOUT-US" transform="translate(149.000000, 1015.000000)">
                <g id="03" transform="translate(786.000000, 312.000000)">
                    <g id="Heart" transform="translate(46.000000, 0.000000)">
                        <path d="M30.488,4.956 C33.79,1.873 38.133,0.107 42.79,0.107 C52.839,0.107 60.969,8.348 60.969,18.495 C60.969,23 59.357,27.262 56.484,30.589 L56.359,30.724 C56.282,30.803 56.282,30.803 55.935,31.156 C55.473,31.627 55.473,31.627 54.818,32.294 C53.662,33.471 52.506,34.648 51.412,35.761 C50.026,37.172 48.869,38.347 48.018,39.209 C45.405,41.858 45.405,41.858 42.392,44.912 C39.015,48.336 39.015,48.336 36.2,51.189 C33.948,53.471 33.948,53.471 33.385,54.042 C31.674,55.777 28.892,55.751 27.196,54.002 L4.467,30.558 L4.329,30.406 C1.552,27.105 8.8817842e-16,22.916 8.8817842e-16,18.495 C8.8817842e-16,8.348 8.13,0.107 18.179,0.107 C22.84,0.107 27.184,1.868 30.488,4.956 L30.488,4.956 C30.48,4.963 30.515,4.981 30.488,4.956 L30.488,4.956 L30.488,4.956 Z M52.147,26.727 C54.08,24.457 55.163,21.565 55.163,18.495 C55.163,11.538 49.614,5.914 42.79,5.914 C38.815,5.914 35.156,7.83 32.833,11.025 L30.485,14.256 L28.136,11.025 C25.813,7.83 22.154,5.914 18.179,5.914 C11.355,5.914 5.807,11.538 5.807,18.495 C5.807,21.505 6.846,24.342 8.711,26.593 L30.32,48.882 L30.32,48.882 L30.32,48.882 L30.32,48.882 L32.066,47.111 C34.881,44.258 34.881,44.258 38.259,40.834 C41.272,37.78 41.272,37.78 43.885,35.131 C44.733,34.272 45.887,33.099 47.272,31.69 C47.278,31.684 47.278,31.684 47.285,31.677 C48.364,30.579 49.52,29.402 50.675,28.226 C51.329,27.559 51.329,27.559 51.791,27.089 L52.147,26.727 L52.147,26.727 Z M52.147,26.727 C52.128,26.749 52.109,26.771 52.09,26.793 L52.214,26.657 L52.147,26.727 L52.147,26.727 Z M8.711,26.593 L8.636,26.516 L8.773,26.668 C8.752,26.643 8.731,26.618 8.711,26.593 L8.711,26.593 Z" id="heart"></path>
                    </g>
                </g>
            </g>
        </g>
    </g>
</svg>

<svg xmlns="http://www.w3.org/2000/svg" width="61" height="56"><title>heart</title><desc>Created with Sketch.</desc><g fill="none"><g fill="#CECED2"><g><g><g><path d="M30.5 4.96C33.8 1.86 38.12.1 42.8.1c10.04 0 18.17 8.25 18.17 18.4 0 4.5-1.6 8.76-4.5 12.1l-.1.12c-.1.08-.1.08-.43.44-.47.47-.47.47-1.12 1.13-1.16 1.17-2.3 2.35-3.4 3.46-1.4 1.4-2.55 2.6-3.4 3.45-2.62 2.66-2.62 2.66-5.63 5.7-3.38 3.44-3.38 3.44-6.2 6.3-2.25 2.27-2.25 2.27-2.82 2.84-1.7 1.74-4.5 1.7-6.18-.04L4.47 30.56l-.14-.15C1.55 27.1 0 22.93 0 18.5 0 8.35 8.13.1 18.18.1c4.66 0 9 1.77 12.3 4.86 0 0 .04.02 0 0zm21.65 21.77c1.93-2.27 3-5.16 3-8.23 0-6.96-5.54-12.6-12.36-12.6-3.98 0-7.64 1.93-9.97 5.13l-2.34 3.23-2.36-3.23c-2.33-3.2-6-5.12-9.96-5.12-6.82 0-12.37 5.64-12.37 12.6 0 3 1.05 5.84 2.9 8.1l21.62 22.28 1.75-1.77c2.8-2.84 2.8-2.84 6.2-6.27 3-3.05 3-3.05 5.6-5.7.86-.86 2.02-2.03 3.4-3.44 0-.02 0-.02 0-.02 1.1-1.1 2.25-2.28 3.4-3.45.66-.67.66-.67 1.12-1.14l.35-.37zm0 0c-.02.02-.04.04-.06.06l.1-.14-.05.07zM8.7 26.6l-.06-.08.13.15c-.02-.03-.04-.05-.06-.08z"/></g></g></g></g></g></svg>
